icons/midnadark/actions/24/selection-move-to-layer-above.svg

<?xml version="1.0" encoding="UTF-8" standalone="no"?>
<!-- Created with Inkscape (http://www.inkscape.org/) -->

<svg
   xmlns:dc="http://purl.org/dc/elements/1.1/"
   xmlns:cc="http://creativecommons.org/ns#"
   xmlns:rdf="http://www.w3.org/1999/02/22-rdf-syntax-ns#"
   xmlns:svg="http://www.w3.org/2000/svg"
   xmlns="http://www.w3.org/2000/svg"
   xmlns:sodipodi="http://sodipodi.sourceforge.net/DTD/sodipodi-0.dtd"
   xmlns:inkscape="http://www.inkscape.org/namespaces/inkscape"
   width="16"
   height="16"
   id="svg3049"
   version="1.1"
   inkscape:version="0.91 r13725"
   sodipodi:docname="selection-move-to-layer-above.svg"
   inkscape:export-filename="/home/uri/.kde/share/icons/NITRUX-KDE/16x16/actions/view-right-new.png"
   inkscape:export-xdpi="30"
   inkscape:export-ydpi="30">
  <defs
     id="defs3051" />
  <sodipodi:namedview
     id="base"
     pagecolor="#ffffff"
     bordercolor="#666666"
     borderopacity="1.0"
     inkscape:pageopacity="0.0"
     inkscape:pageshadow="2"
     inkscape:zoom="12.205653"
     inkscape:cx="-18.411098"
     inkscape:cy="17.643899"
     inkscape:document-units="px"
     inkscape:current-layer="g4531"
     showgrid="true"
     fit-margin-top="0"
     fit-margin-left="0"
     fit-margin-right="0"
     fit-margin-bottom="0"
     inkscape:window-width="1366"
     inkscape:window-height="633"
     inkscape:window-x="0"
     inkscape:window-y="33"
     inkscape:window-maximized="1"
     inkscape:showpageshadow="false"
     borderlayer="true"
     inkscape:object-nodes="true"
     inkscape:snap-bbox="true">
    <inkscape:grid
       type="xygrid"
       id="grid4085" />
    <sodipodi:guide
       position="2.0000044,14.00003"
       orientation="12,0"
       id="guide4075" />
    <sodipodi:guide
       position="2.0000044,2.0000296"
       orientation="0,12"
       id="guide4077" />
    <sodipodi:guide
       position="14.000004,2.0000296"
       orientation="-12,0"
       id="guide4079" />
    <sodipodi:guide
       position="14.000004,14.00003"
       orientation="0,-12"
       id="guide4081" />
  </sodipodi:namedview>
  <metadata
     id="metadata3054">
    <rdf:RDF>
      <cc:Work
         rdf:about="">
        <dc:format>image/svg+xml</dc:format>
        <dc:type
           rdf:resource="http://purl.org/dc/dcmitype/StillImage" />
        <dc:title />
      </cc:Work>
    </rdf:RDF>
  </metadata>
  <g
     inkscape:label="Capa 1"
     inkscape:groupmode="layer"
     id="layer1"
     transform="translate(-421.71429,-531.79074)">
    <g
       id="g4531"
       transform="matrix(0.75,0,0,-0.74999813,421.46429,1320.8106)">
      <path
         inkscape:connector-curvature="0"
         id="path4144-3-8-1"
         d="m 15.000005,1045.3624 3.999994,4 -11.9999938,0 -4,-4.0001 z"
         style="fill:#ffffff;fill-opacity:1;fill-rule:evenodd;stroke:none;stroke-width:1.33333504px;stroke-linecap:butt;stroke-linejoin:miter;stroke-opacity:1" />
      <path
         sodipodi:nodetypes="cccccccccccc"
         inkscape:connector-curvature="0"
         id="rect4071-0-1-6-1"
         transform="matrix(1.3333333,0,0,1.3333367,0.3333327,1030.6957)"
         d="M 11,5.0000153 11,9.03125 9.65625,7.59375 9,8.28125 l 2.3125,2.5 L 11.5,11 11.6875,10.78125 14,8.28125 13.34375,7.59375 12,9.03125 c 1.2e-5,-0.023517 -10e-7,-2.907742 0,-4.0312347 z"
         style="fill:#1d99f3;fill-opacity:1;stroke:none" />
      <path
         transform="matrix(1.3333333,0,0,1.3333367,0.3333327,1030.6957)"
         id="path4144-3-1-1-5-9"
         d="M 2,2 5,5 10,5 10,4 5.4140625,4 4.4160156,3 10.585938,3 11.583984,4 12,4 13,4 11,2 2,2 Z"
         style="fill:#ffffff;fill-opacity:1;fill-rule:evenodd;stroke:none;stroke-width:1.33333504px;stroke-linecap:butt;stroke-linejoin:miter;stroke-opacity:1"
         inkscape:connector-curvature="0" />
    </g>
  </g>
</svg>

<svg xmlns="http://www.w3.org/2000/svg" viewBox="0 0 16 16"><g transform="matrix(.75 0 0-.75-.25 789.02)"><path d="m15 1045.36l4 4h-12l-4-4z" fill="#fff" fill-rule="evenodd"/><g transform="matrix(1.33333 0 0 1.33334.333 1030.7)"><path d="m11 5v4.03l-1.344-1.438-.656.688 2.313 2.5.188.219.188-.219 2.313-2.5-.656-.688-1.344 1.438c0-.024 0-2.908 0-4.03z" fill="#1d99f3"/><path d="m2 2l3 3h5v-1h-4.586l-.998-1h6.17l.998 1h.416 1l-2-2h-9" fill="#fff" fill-rule="evenodd"/></g></g></svg>
